X: 4047
T: Blathanna
R: jig
M: 6/8
K: Bminor
B2>c2dB|cA A2 Bc|d2>e2f/e/d|ca a2 z g|fd d2 ef|
ecA EE/F/A|B2 B2 BA|B4 z2||B2>c2dB|
cA A2 Bc|d2 z ef/e/d|ca a2zg|fd d2 ef|
ecA EE/F/A|B2 B2 BA|B4 z2||g2>f2ed|
g2 f z ed|c2>d2e/d/c|d2>e2f/g/a|g2>f2ed|
gaf ged|cAA EE/F/A|B4 z2||g2> f2ed|
g2 f z ed|c2> d2e/d/c|d2> e2f/e/d|B2> c2d/c/B|
cAA EE/F/A|B4 BA|B4 z2||

